assets/Woman pilot/Dark/Flat/woman_pilot_flat_dark.svg

<svg width="32" height="32" viewBox="0 0 32 32" fill="none" xmlns="http://www.w3.org/2000/svg">
<path d="M23.49 10.9543C23.49 11.474 23.3799 11.9536 23.1698 12.3833C23.0997 12.5233 23.1097 12.6931 23.1798 12.843C23.3799 13.2728 23.5 13.7524 23.5 14.2521C23.5 16.0209 22.059 17.46 20.2879 17.46H11.7121C9.94096 17.46 8.5 16.0209 8.5 14.2521C8.5 13.7424 8.61007 13.2628 8.82021 12.843C8.89026 12.6931 8.89026 12.5233 8.82021 12.3833C8.62008 11.9436 8.5 11.464 8.5 10.9543C8.5 10.2847 8.70013 9.66516 9.04036 9.13551C9.39059 8.60586 9.90093 7.99627 9.90093 7.36669V7.3567C9.90093 5.53791 11.0417 4.06889 12.8629 4.06889C13.043 4.06889 13.2131 3.98894 13.3132 3.83904C13.9136 2.9996 14.8943 2.45996 15.995 2.45996C17.1057 2.45996 18.0764 3.00959 18.6768 3.83904C18.7769 3.98894 18.947 4.06889 19.1271 4.06889C20.9383 4.06889 22.0991 5.53791 22.0991 7.3567V7.36669C22.0891 7.99627 22.5894 8.61586 22.9396 9.13551C23.2899 9.65516 23.49 10.2847 23.49 10.9543Z" fill="black"/>
<path d="M9 18.0159C9.87168 17.2961 10.8561 16.7081 11.9225 16.2821L16.0106 15.9646L20.1265 16.3025C21.1745 16.7274 22.1421 17.3094 23 18.0194L25.1001 24.0394L23 30.0015H8.99995L7.01892 24.0394L9 18.0159Z" fill="#533566"/>
<path d="M18.7 16.1116H13.29V30.0016H18.7V16.1116Z" fill="#D3D3D3"/>
<path d="M14.3199 19.0014L15.9999 18.6714L17.6699 19.0014L16.6899 21.1114L18.0501 30.0016H13.9301L15.2999 21.1114L14.3199 19.0014Z" fill="#533566"/>
<path d="M16 15.3115H13.29V20.0515C13.29 20.3615 13.65 20.5415 13.9 20.3415L16 18.6715L18.1 20.3415C18.35 20.5415 18.71 20.3615 18.71 20.0515V15.3115H16V15.3115Z" fill="#F4F4F4"/>
<path d="M21.22 21.1215L19.86 19.7915C19.69 19.6215 19.81 19.3415 20.05 19.3415H21.1C21.31 19.3415 21.45 19.1215 21.36 18.9315L20.125 16.3086C19.8974 16.2138 19.6652 16.1395 19.4286 16.0639L19.39 16.0515H18.71V29.9915L21.45 22.1315C21.57 21.7715 21.48 21.3815 21.22 21.1215Z" fill="#321B41"/>
<path d="M13.29 16.0916H12.44C12.2996 16.1383 12.1653 16.1912 12.0277 16.2454C11.9889 16.2607 11.9495 16.2762 11.91 16.2916L10.64 18.9816C10.55 19.1716 10.69 19.3916 10.9 19.3916H11.95C12.19 19.3916 12.3 19.6816 12.14 19.8416L10.78 21.1716C10.52 21.4316 10.42 21.8216 10.55 22.1716L13.28 29.9916H13.29V16.0916Z" fill="#321B41"/>
<path d="M9 18.0015C6.57 20.0315 4.97994 23.0815 4.99994 26.5015V30.0015L8.99994 30L9 18.0015Z" fill="#321B41"/>
<path d="M23 18.0115V30.0015L27 30V26.5C27 23.09 25.44 20.0315 23 18.0115Z" fill="#321B41"/>
<path d="M16 18.5C14.8932 18.5 14 17.5359 14 16.3413V13.6587C14 12.4641 14.8932 11.5 16 11.5C17.1068 11.5 18 12.4641 18 13.6587V16.3413C18 17.5359 17.1068 18.5 16 18.5Z" fill="#452829"/>
<path d="M13.25 10.625C13.25 11.5225 12.5225 12.25 11.625 12.25C10.7275 12.25 10 11.5225 10 10.625C10 9.72754 10.7275 9 11.625 9C12.5225 9 13.25 9.72754 13.25 10.625Z" fill="#4E3233"/>
<path d="M22 10.625C22 11.5225 21.2725 12.25 20.375 12.25C19.4775 12.25 18.75 11.5225 18.75 10.625C18.75 9.72754 19.4775 9 20.375 9C21.2725 9 22 9.72754 22 10.625Z" fill="#4E3233"/>
<path d="M19.8756 7.28394H16.7214C15.4677 7.28394 14.3035 6.65672 13.597 5.60462C13.4776 5.44275 13.2189 5.4731 13.1393 5.66531L13.0697 5.85753C12.8408 6.41393 12.4229 6.85905 11.8955 7.09173C11.8657 7.11196 11.8259 7.12208 11.796 7.1322C11.5672 7.24348 11.0199 7.61778 11 8.56873L11.1294 11.7655C11.2488 14.5981 13.3881 16.5 16.005 16.5C18.6119 16.5 20.7612 14.5981 20.8806 11.7655L21 8.72047C20.9801 7.38511 20.0547 7.29406 19.8756 7.28394Z" fill="#573739"/>
<path d="M13.3083 9.25C13.8683 9.25 14.3283 9.63 14.6183 10.07C14.3625 10.1479 14.1149 10.2188 13.87 10.2891C13.4543 10.4083 13.0462 10.5253 12.6183 10.67L12.1383 10.24C11.9383 10.07 11.9583 9.75 12.1783 9.6C12.4883 9.37 12.9083 9.25 13.3083 9.25Z" fill="black"/>
<path d="M18.5283 9.25C17.9683 9.25 17.5083 9.63 17.2183 10.07C17.4564 10.1435 17.6896 10.2109 17.9209 10.2778C18.3502 10.4019 18.7729 10.524 19.2083 10.68L19.6883 10.25C19.8883 10.07 19.8783 9.75 19.6583 9.6C19.3483 9.37 18.9283 9.25 18.5283 9.25Z" fill="black"/>
<path d="M12.1382 10.3901C12.2882 9.79009 12.8382 9.34009 13.4882 9.34009C14.1582 9.34009 14.7282 9.83009 14.8582 10.4601C14.8882 10.6001 14.7682 10.7301 14.6282 10.7301H12.4082C12.2282 10.7301 12.0982 10.5601 12.1382 10.3901Z" fill="white"/>
<path d="M19.6983 10.3901C19.5483 9.79009 18.9983 9.34009 18.3483 9.34009C17.6683 9.34009 17.1083 9.83009 16.9783 10.4601C16.9483 10.6001 17.0683 10.7301 17.2083 10.7301H19.4283C19.6083 10.7301 19.7383 10.5601 19.6983 10.3901Z" fill="white"/>
<path d="M12.7983 10.5001C12.7983 10.0101 13.1983 9.61011 13.6883 9.61011C14.1783 9.61011 14.5783 10.0101 14.5783 10.5001C14.5783 10.5901 14.5683 10.6601 14.5483 10.7401H12.8283C12.8083 10.6601 12.7983 10.5801 12.7983 10.5001Z" fill="#7D4533"/>
<path d="M19.0283 10.5001C19.0283 10.0101 18.6283 9.61011 18.1383 9.61011C17.6483 9.61011 17.2483 10.0101 17.2483 10.5001C17.2483 10.5534 17.2572 10.6068 17.2661 10.6601C17.2705 10.6868 17.275 10.7134 17.2783 10.7401H18.9983C19.0183 10.6601 19.0283 10.5801 19.0283 10.5001Z" fill="#7D4533"/>
<path d="M13.6883 9.98999C13.9683 9.98999 14.1983 10.22 14.1983 10.5C14.1983 10.58 14.1783 10.66 14.1383 10.74H13.2383C13.1983 10.67 13.1783 10.59 13.1783 10.5C13.1783 10.22 13.4083 9.98999 13.6883 9.98999Z" fill="black"/>
<path d="M18.1483 9.98999C17.8683 9.98999 17.6383 10.22 17.6383 10.5C17.6383 10.58 17.6583 10.66 17.6983 10.74H18.5983C18.6383 10.67 18.6583 10.59 18.6583 10.5C18.6583 10.22 18.4283 9.98999 18.1483 9.98999Z" fill="black"/>
<path d="M13.5483 10.15C13.5483 10.2384 13.4766 10.31 13.3883 10.31C13.2999 10.31 13.2283 10.2384 13.2283 10.15C13.2283 10.0616 13.2999 9.98999 13.3883 9.98999C13.4766 9.98999 13.5483 10.0616 13.5483 10.15Z" fill="white"/>
<path d="M17.9982 10.15C17.9982 10.2384 17.9266 10.31 17.8382 10.31C17.7499 10.31 17.6782 10.2384 17.6782 10.15C17.6782 10.0616 17.7499 9.98999 17.8382 9.98999C17.9266 9.98999 17.9982 10.0616 17.9982 10.15Z" fill="white"/>
<path d="M15.519 10.7889L15.0217 12.5331C14.9241 12.8969 15.168 13.25 15.5093 13.25H16.2407C16.582 13.25 16.8259 12.8862 16.7283 12.5331L16.231 10.7889C16.1237 10.4037 15.6263 10.4037 15.519 10.7889Z" fill="#3D2123"/>
<path d="M15.8651 13.9625C15.3522 13.9625 14.8787 13.8282 14.4742 13.5821C14.3361 13.5037 14.1881 13.6828 14.2769 13.8282C14.6123 14.4213 15.2042 14.813 15.875 14.813C16.5458 14.813 17.1278 14.4213 17.4731 13.8282C17.5619 13.6828 17.4139 13.5037 17.2758 13.5821C16.8615 13.8282 16.3781 13.9625 15.8651 13.9625Z" fill="#290118"/>
<path d="M15.9973 2.00136C16.1674 1.99743 19.1302 1.92907 21.73 3.55151C22.72 4.16151 22.92 5.51151 22.12 6.34151L21.442 7.05937C21.4447 7.06006 21.4474 7.06076 21.45 7.06146L21.05 7.53146C20.31 8.40146 19.23 8.90146 18.09 8.90146H13.9C12.76 8.90146 11.68 8.40146 10.95 7.53146L10.5501 7.06151H10.54L9.85998 6.34151C9.05998 5.50151 9.24998 4.14151 10.25 3.54151C12.8378 1.99878 15.9209 2.00145 15.9892 2.00151C15.9901 2.00151 15.9933 2.00145 15.9973 2.00136Z" fill="#533566"/>
<path d="M16.05 5.52148C16.44 5.52148 18.32 5.54148 20.61 6.03148C21.1 6.13148 21.45 6.56147 21.45 7.06146C18.53 6.30146 16 6.33146 16 6.33146C16 6.33146 13.47 6.30146 10.55 7.06146C10.5501 6.56147 10.9001 6.13148 11.39 6.03148C13.68 5.55148 15.55 5.52148 15.95 5.52148H16.05Z" fill="#FCD53F"/>
<path d="M16.1041 4.27148H17.5041C17.5841 4.27148 17.6441 4.2305 17.6841 4.15878L18.2341 3.18542C18.2741 3.1137 18.2241 3.02148 18.1441 3.02148H16.7441C16.6641 3.02148 16.6041 3.06247 16.5641 3.13419L16.0141 4.10755C15.9741 4.17927 16.0241 4.27148 16.1041 4.27148Z" fill="#F9C23C"/>
<path d="M15.8909 4.28149H14.4864C14.4062 4.28149 14.346 4.24017 14.3058 4.16786L13.7641 3.19678C13.724 3.12447 13.7742 3.03149 13.8544 3.03149H15.2589C15.3391 3.03149 15.3993 3.07282 15.4394 3.14513L15.9912 4.12654C16.0213 4.18852 15.9711 4.28149 15.8909 4.28149Z" fill="#F9C23C"/>
<path d="M22.72 19.7815H23.36C23.49 19.7815 23.6 19.8915 23.61 20.0315C23.6 20.1615 23.49 20.2515 23.36 20.2515H23.21C23.17 20.2515 23.13 20.2715 23.11 20.3115L23.02 20.5115C22.96 20.6315 22.84 20.7115 22.7 20.7115H21.63C21.49 20.7115 21.37 20.6315 21.31 20.5115L21.22 20.3115C21.2 20.2715 21.16 20.2515 21.12 20.2515H20.96C20.83 20.2515 20.72 20.1315 20.73 20.0015C20.74 19.8715 20.85 19.7815 20.98 19.7815H21.6C21.83 19.7815 22.04 19.9115 22.14 20.1115C22.14 20.1315 22.17 20.1315 22.18 20.1115C22.28 19.9115 22.49 19.7815 22.72 19.7815Z" fill="#F9C23C"/>
<path d="M16 5.33154C16.4832 5.33154 16.875 4.93979 16.875 4.45654C16.875 3.97329 16.4832 3.58154 16 3.58154C15.5168 3.58154 15.125 3.97329 15.125 4.45654C15.125 4.93979 15.5168 5.33154 16 5.33154Z" fill="#FFB02E"/>
<path d="M16.0577 3.93693L16.1615 4.16405C16.171 4.1838 16.1899 4.19367 16.2087 4.20355L16.4447 4.23317C16.4919 4.24304 16.5203 4.30229 16.4825 4.34179L16.3126 4.51953C16.2937 4.53928 16.2937 4.55903 16.2937 4.57878L16.3598 4.81577C16.3787 4.86514 16.322 4.91451 16.2748 4.89477L16.0294 4.77627C16.0105 4.7664 15.9916 4.7664 15.9728 4.77627L15.7273 4.89477C15.6801 4.91451 15.6235 4.87502 15.6424 4.81577L15.7084 4.57878C15.7179 4.55903 15.7084 4.52941 15.6896 4.51953L15.5196 4.34179C15.4819 4.30229 15.5008 4.24304 15.5574 4.23317L15.7934 4.20355C15.8123 4.20355 15.8312 4.1838 15.8406 4.16405L15.9444 3.93693C15.9728 3.88756 16.0294 3.88756 16.0577 3.93693Z" fill="#FFF478"/>
</svg>

<svg xmlns="http://www.w3.org/2000/svg" width="32" height="32" fill="none"><path fill="#000" d="M23.49 10.954c0 .52-.11 1-.32 1.43a.53.53 0 0 0 .01.459c.2.43.32.91.32 1.41a3.214 3.214 0 0 1-3.212 3.207h-8.576A3.214 3.214 0 0 1 8.5 14.252c0-.51.11-.99.32-1.409.07-.15.07-.32 0-.46-.2-.44-.32-.919-.32-1.429 0-.67.2-1.289.54-1.818.35-.53.86-1.14.86-1.77v-.01c0-1.818 1.142-3.287 2.963-3.287.18 0 .35-.08.45-.23a3.29 3.29 0 0 1 2.682-1.379c1.11 0 2.081.55 2.682 1.379.1.15.27.23.45.23 1.811 0 2.972 1.469 2.972 3.288v.01c-.01.63.49 1.249.84 1.769.35.52.551 1.149.551 1.818Z"/><path fill="#533566" d="M9 18.016a11 11 0 0 1 2.922-1.734l4.089-.317 4.116.337A10.977 10.977 0 0 1 23 18.02l2.1 6.02-2.1 5.962H9L7.019 24.04 9 18.016Z"/><path fill="#D3D3D3" d="M18.7 16.112h-5.41v13.89h5.41v-13.89Z"/><path fill="#533566" d="m14.32 19.001 1.68-.33 1.67.33-.98 2.11 1.36 8.89h-4.12l1.37-8.89-.98-2.11Z"/><path fill="#F4F4F4" d="M16 15.312h-2.71v4.74c0 .31.36.49.61.29l2.1-1.67 2.1 1.67c.25.2.61.02.61-.29v-4.74H16Z"/><path fill="#321B41" d="m21.22 21.122-1.36-1.33a.262.262 0 0 1 .19-.45h1.05c.21 0 .35-.22.26-.41l-1.235-2.623a8.612 8.612 0 0 0-.696-.245l-.039-.012h-.68v13.94l2.74-7.86c.12-.36.03-.75-.23-1.01ZM13.29 16.092h-.85a8.064 8.064 0 0 0-.53.2l-1.27 2.69c-.09.19.05.41.26.41h1.05c.24 0 .35.29.19.45l-1.36 1.33c-.26.26-.36.65-.23 1l2.73 7.82h.01v-13.9ZM9 18.002c-2.43 2.03-4.02 5.08-4 8.5v3.5L9 30V18.002ZM23 18.012v11.99L27 30v-3.5c0-3.41-1.56-6.468-4-8.488Z"/><path fill="#452829" d="M16 18.5c-1.107 0-2-.964-2-2.159V13.66c0-1.195.893-2.159 2-2.159s2 .964 2 2.159v2.682c0 1.195-.893 2.159-2 2.159Z"/><path fill="#4E3233" d="M13.25 10.625a1.625 1.625 0 1 1-3.25 0 1.625 1.625 0 0 1 3.25 0ZM22 10.625a1.625 1.625 0 1 1-3.25 0 1.625 1.625 0 0 1 3.25 0Z"/><path fill="#573739" d="M19.876 7.284H16.72a3.76 3.76 0 0 1-3.124-1.68.266.266 0 0 0-.458.061l-.07.193a2.284 2.284 0 0 1-1.174 1.234c-.03.02-.07.03-.099.04-.229.111-.776.486-.796 1.437l.13 3.196c.119 2.833 2.258 4.735 4.875 4.735 2.607 0 4.756-1.902 4.876-4.735L21 8.72c-.02-1.335-.945-1.426-1.124-1.436Z"/><path fill="#000" d="M13.308 9.25c.56 0 1.02.38 1.31.82-.255.078-.503.149-.748.22-.416.118-.824.235-1.252.38l-.48-.43c-.2-.17-.18-.49.04-.64.31-.23.73-.35 1.13-.35ZM18.528 9.25c-.56 0-1.02.38-1.31.82.238.073.472.14.703.208.43.124.852.246 1.287.402l.48-.43c.2-.18.19-.5-.03-.65-.31-.23-.73-.35-1.13-.35Z"/><path fill="#fff" d="M12.138 10.39c.15-.6.7-1.05 1.35-1.05.67 0 1.24.49 1.37 1.12.03.14-.09.27-.23.27h-2.22c-.18 0-.31-.17-.27-.34ZM19.698 10.39c-.15-.6-.7-1.05-1.35-1.05-.68 0-1.24.49-1.37 1.12-.03.14.09.27.23.27h2.22c.18 0 .31-.17.27-.34Z"/><path fill="#7D4533" d="M12.798 10.5c0-.49.4-.89.89-.89a.892.892 0 0 1 .86 1.13h-1.72a.986.986 0 0 1-.03-.24ZM19.028 10.5c0-.49-.4-.89-.89-.89s-.89.4-.89.89c0 .053.01.107.018.16.005.027.009.053.012.08h1.72c.02-.08.03-.16.03-.24Z"/><path fill="#000" d="M13.688 9.99a.512.512 0 0 1 .45.75h-.9a.512.512 0 0 1 .45-.75ZM18.148 9.99a.512.512 0 0 0-.45.75h.9a.512.512 0 0 0-.45-.75Z"/><path fill="#fff" d="M13.548 10.15a.16.16 0 1 1-.32 0 .16.16 0 0 1 .32 0ZM17.998 10.15a.16.16 0 1 1-.32 0 .16.16 0 0 1 .32 0Z"/><path fill="#3D2123" d="m15.519 10.789-.497 1.744c-.098.364.146.717.487.717h.732c.341 0 .585-.364.487-.717l-.497-1.744a.364.364 0 0 0-.712 0Z"/><path fill="#290118" d="M15.865 13.963c-.513 0-.986-.135-1.39-.38-.139-.08-.287.1-.198.245.335.593.927.985 1.598.985.67 0 1.253-.392 1.598-.985.089-.145-.06-.324-.197-.246-.415.246-.898.38-1.41.38Z"/><path fill="#533566" d="M15.997 2.001c.17-.004 3.133-.072 5.733 1.55.99.61 1.19 1.96.39 2.79l-.678.718.008.002-.4.47c-.74.87-1.82 1.37-2.96 1.37H13.9c-1.14 0-2.22-.5-2.95-1.37l-.4-.47h-.01l-.68-.72c-.8-.84-.61-2.2.39-2.8 2.588-1.542 5.67-1.54 5.74-1.54h.007Z"/><path fill="#FCD53F" d="M16.05 5.521c.39 0 2.27.02 4.56.51.49.1.84.53.84 1.03-2.92-.76-5.45-.73-5.45-.73s-2.53-.03-5.45.73c0-.5.35-.93.84-1.03 2.29-.48 4.16-.51 4.56-.51h.1Z"/><path fill="#F9C23C" d="M16.104 4.271h1.4c.08 0 .14-.04.18-.112l.55-.974c.04-.071-.01-.164-.09-.164h-1.4c-.08 0-.14.041-.18.113l-.55.974c-.04.071.01.163.09.163Z"/><path fill="#F9C23C" d="M15.89 4.281h-1.404c-.08 0-.14-.04-.18-.113l-.542-.971c-.04-.073.01-.166.09-.166h1.405c.08 0 .14.042.18.114l.552.982c.03.062-.02.154-.1.154ZM22.72 19.782h.64c.13 0 .24.11.25.25-.01.13-.12.22-.25.22h-.15a.11.11 0 0 0-.1.06l-.09.2c-.06.12-.18.2-.32.2h-1.07c-.14 0-.26-.08-.32-.2l-.09-.2a.11.11 0 0 0-.1-.06h-.16c-.13 0-.24-.12-.23-.25.01-.13.12-.22.25-.22h.62c.23 0 .44.13.54.33 0 .02.03.02.04 0 .1-.2.31-.33.54-.33Z"/><path fill="#FFB02E" d="M16 5.332a.875.875 0 1 0 0-1.75.875.875 0 0 0 0 1.75Z"/><path fill="#FFF478" d="m16.058 3.937.104.227c.009.02.028.03.047.04l.236.03c.047.009.075.068.038.108l-.17.178c-.02.02-.02.039-.02.059l.067.237c.019.05-.038.099-.085.079l-.246-.119a.058.058 0 0 0-.056 0l-.246.119c-.047.02-.104-.02-.085-.08l.066-.236c.01-.02 0-.05-.018-.06l-.17-.177c-.038-.04-.02-.099.037-.109l.236-.03c.02 0 .038-.02.048-.039l.103-.227c.029-.05.085-.05.114 0Z"/></svg>
